X: 42774
T: White Rose, The
R: waltz
M: 3/4
K: Cmajor
G,/ A,>B,|C2 E2- E>C|D2 F2 D2|C2 E>G E>G|F2 A2- A>F|G2 c>B c>d|e2 d2 c2|d2 d>c d>e|d4 (3G,A,B,|
C2 E>D C2|D2 F2- F>D|E2 G2 C2|F2 A2 (3DEF|G2 c2 e2|f2 f>A B>A|c2 c>B c>d|c2||
G2 c2|e2 c2 A2|d4 e>d|c2 c>B A2|G2 G>F E>D|C2- C>C B,>C|E>D C2 A>_B,|B,<G- G>^F =F>D|B,4 (3G,A,B,|
C>D E>C D>E|D>E F2 B,>D|E>F G>E C>E|F>G A2 E>F|G2 c2 e2|f4 B2|c2- c>B c>d|c2- c3/2||

